X:1
T:Title
%%score { ( 1 2 ) | ( 3 4 ) }
L:1/8
Q:1/4=100
M:4/4
K:Ab
V:1 treble nm="Grand Piano"
V:2 treble 
V:3 bass 
V:4 bass 
V:1
 z4 [CA]2 z2 | [Ec]2 z2 z4 | [EB]2 [B,EG][B,FA] [EGB]2 [EAc][DFA] | [B,EG]2 .[B,=DF]2 [G,E]4 | %4
 z4 [CA]2 z2 | [Ec]2 z2 z4 | [EB]2 [=Dc][A=d] [Ge]2 [B,EB][CEA] | [B,EG]2 .[B,=DF]2 [G,E]4 | %8
 [Ec]2 [=D_c]>[E=c] [Fd]2 [Ec]>[CA] | c2 B2 G2 E2 | B2 =A>B c2 BG | [DB]2 [CA]2 [DF]2 [CE]2 | %12
 [Ec]2 [=D_c]>[E=c] d2 cF | [FB]2 [Fc]2 [Fe]2 [Fd]2 | [Ac]2 Ad c2 B>B | [CA]6 z2 |] %16
V:2
 [CE]2 [DF][DG] z A,[DB][=D_c] | z A,[=D_c][E=c] [Fd]2 [Ec]2 | x8 | z4 B,2 z2 | %4
 [CE]2 [DF][DG] z A,[DB][=D_c] | z A,[=D_c][E=c] [Fd]2 [Ec]2 | x8 | x8 | x8 | x8 | x8 | x8 | x8 | %13
 x8 | x8 | x8 |] %16
V:3
 [A,,A,]2 [A,,A,][A,,A,] .[A,,E,]2 [A,,G,][A,,F,] | .[A,,E,]2 [A,,A,]2 [A,,A,]2 [A,,A,]2 | %2
 [E,G,]2 E,E, E,2 A,,A,, | B,,2 z A, z2 D2 | [A,,A,]2 [A,,A,][A,,A,] .[A,,E,]2 [A,,G,][A,,F,] | %5
 .[A,,E,]2 [A,,A,]2 [A,,A,]2 [A,,A,]2 | [B,,G,]2 [B,,A,][B,,B,] [E,B,]2 G,,A,, | B,,2 z A, E,4 | %8
 [A,,A,]2 [A,,A,]>[A,,A,] [A,,A,]2 [A,,A,]>[A,,A,] | [E,G,E]2 [E,G,D]2 [E,B,D]2 [E,G,D]2 | %10
 [E,G,D]2 [E,_G,C]>[E,=G,D] [E,G,E]2 [E,G,D][E,B,D] | [A,,A,]2 [A,,A,]2 [A,,A,]2 [A,,A,]2 | %12
 [A,,A,]2 [A,,A,]>[A,,A,] [F,=A,E]2 [F,A,E][F,A,E] | [D,B,]2 [C,=A,]2 [B,,B,]2 [D,B,]2 | %14
 [E,E]2 [E,CE][E,B,E] [E,A,E]2 [E,G,D]>[E,G,D] | [A,,E,A,]6 z2 |] %16
V:4
 x8 | x8 | x8 | z2 B,,2 E,4 | x8 | x8 | x8 | z2 B,,2 z4 | x8 | x8 | x8 | x8 | x8 | x8 | x8 | x8 |] %16

